storage/app/icons/phosphoricons/regular/ticket.svg

<svg xmlns="http://www.w3.org/2000/svg" fill="currentColor" viewBox="0 0 256 256"><path d="M232 104a8 8 0 0 0 8-8V64a16 16 0 0 0-16-16H32a16 16 0 0 0-16 16v32a8 8 0 0 0 8 8 24 24 0 0 1 0 48 8 8 0 0 0-8 8v32a16 16 0 0 0 16 16h192a16 16 0 0 0 16-16v-32a8 8 0 0 0-8-8 24 24 0 0 1 0-48M32 167.2a40 40 0 0 0 0-78.4V64h56v128H32Zm192 0V192H104V64h120v24.8a40 40 0 0 0 0 78.4"/></svg>

<svg xmlns="http://www.w3.org/2000/svg" viewBox="0 0 256 256" fill="currentColor"><path d="M232,104a8,8,0,0,0,8-8V64a16,16,0,0,0-16-16H32A16,16,0,0,0,16,64V96a8,8,0,0,0,8,8,24,24,0,0,1,0,48,8,8,0,0,0-8,8v32a16,16,0,0,0,16,16H224a16,16,0,0,0,16-16V160a8,8,0,0,0-8-8,24,24,0,0,1,0-48ZM32,167.2a40,40,0,0,0,0-78.4V64H88V192H32Zm192,0V192H104V64H224V88.8a40,40,0,0,0,0,78.4Z"/></svg>
